casedrop/img/upgrade/icons/plugin.svg

<svg width="17" height="17" viewBox="0 0 17 17" fill="none" xmlns="http://www.w3.org/2000/svg">
<path d="M14.8172 2.53043C15.2477 2.53043 15.6301 2.74105 15.9374 2.91029C16.1631 3.03457 16.3412 3.13271 16.5246 3.13271C16.604 3.13271 17 3.10475 17 2.55182V1.18088C17 0.547776 16.485 0.0327148 15.8518 0.0327148H10.0913C9.45818 0.0327148 8.94312 0.547776 8.94312 1.18088V6.94142C8.94312 7.57452 9.45818 8.08959 10.0913 8.08959H15.8518C16.4849 8.08959 16.9999 7.57452 16.9999 6.94142V5.57056C16.9999 5.01763 16.604 4.98963 16.5245 4.98963C16.3412 4.98963 16.163 5.08781 15.9374 5.21205C15.6301 5.38129 15.2478 5.59191 14.8171 5.59191C13.9883 5.59191 13.314 4.90523 13.314 4.06115C13.3139 3.21711 13.9883 2.53043 14.8172 2.53043Z" fill="#3060FF"/>
<path d="M6.90871 0.0327148H5.5378C4.98487 0.0327148 4.95691 0.42877 4.95691 0.508175C4.95691 0.691437 5.05509 0.869704 5.17934 1.09535C5.34854 1.40261 5.5592 1.78501 5.5592 2.21547C5.5592 3.04436 4.87248 3.71872 4.02844 3.71872C3.18436 3.71872 2.49767 3.04436 2.49767 2.21547C2.49767 1.78505 2.70829 1.40265 2.87749 1.09539C3.00182 0.869704 3.09996 0.691478 3.09996 0.508175C3.09996 0.42877 3.07196 0.0327148 2.51903 0.0327148H1.14816C0.515061 0.0327148 0 0.547816 0 1.18088V6.94142C0 7.57452 0.515061 8.08959 1.14816 8.08959H6.90871C7.54181 8.08959 8.05687 7.57452 8.05687 6.94142V1.18088C8.05687 0.547816 7.54181 0.0327148 6.90871 0.0327148Z" fill="#3060FF"/>
<path d="M6.90871 8.91037H1.14816C0.515061 8.91037 0 9.42543 0 10.0585V11.4294C0 11.9824 0.396015 12.0103 0.475419 12.0103C0.658722 12.0103 0.836949 11.9121 1.06259 11.7879C1.36986 11.6187 1.75226 11.408 2.18276 11.408C3.01165 11.408 3.686 12.0947 3.686 12.9388C3.686 13.7828 3.01165 14.4695 2.18276 14.4695C1.75234 14.4695 1.36994 14.2589 1.06267 14.0896C0.836949 13.9653 0.658722 13.8672 0.475419 13.8672C0.396015 13.8673 0 13.8952 0 14.4482V15.8191C0 16.4522 0.515061 16.9672 1.14816 16.9672H6.90871C7.54181 16.9672 8.05687 16.4522 8.05687 15.8191V10.0585C8.05687 9.42543 7.54181 8.91037 6.90871 8.91037Z" fill="#3060FF"/>
<path d="M15.8518 8.91037H10.0913C9.45818 8.91037 8.94312 9.42543 8.94312 10.0585V15.8191C8.94312 16.4522 9.45818 16.9672 10.0913 16.9672H11.4621C12.0151 16.9672 12.043 16.5712 12.043 16.4917C12.043 16.3085 11.9448 16.1302 11.8206 15.9046C11.6514 15.5973 11.4407 15.2149 11.4407 14.7844C11.4407 13.9556 12.1274 13.2813 12.9715 13.2813C13.8155 13.2813 14.5023 13.9556 14.5023 14.7844C14.5023 15.2149 14.2916 15.5973 14.1224 15.9045C13.998 16.1303 13.8999 16.3084 13.8999 16.4917C13.8999 16.5711 13.9279 16.9672 14.4809 16.9672H15.8517C16.4849 16.9672 16.9999 16.4522 16.9999 15.819V10.0585C17 9.42543 16.4849 8.91037 15.8518 8.91037Z" fill="#3060FF"/>
</svg>

<svg width="17" height="17" fill="none" xmlns="http://www.w3.org/2000/svg"><path d="M14.817 2.53c.43 0 .813.211 1.12.38.226.125.404.223.588.223.079 0 .475-.028.475-.581V1.18A1.15 1.15 0 0015.852.033h-5.76a1.15 1.15 0 00-1.15 1.147v5.76a1.15 1.15 0 001.148 1.149h5.76A1.15 1.15 0 0017 6.94V5.57c0-.553-.396-.581-.476-.581-.183 0-.361.098-.587.222-.307.17-.69.38-1.12.38-.829 0-1.503-.687-1.503-1.53 0-.845.674-1.532 1.503-1.532zM6.909.033H5.538c-.553 0-.581.396-.581.475 0 .183.098.362.222.587.17.308.38.69.38 1.12 0 .83-.687 1.504-1.53 1.504-.845 0-1.531-.675-1.531-1.504 0-.43.21-.812.38-1.12C3.001.87 3.1.691 3.1.508c0-.08-.028-.475-.581-.475h-1.37A1.15 1.15 0 000 1.18v5.76a1.15 1.15 0 001.148 1.15h5.76a1.15 1.15 0 001.15-1.15V1.18A1.15 1.15 0 006.909.033zm0 8.877h-5.76A1.15 1.15 0 000 10.06v1.37c0 .553.396.581.475.581.184 0 .362-.098.588-.222.307-.17.69-.38 1.12-.38.829 0 1.503.687 1.503 1.53 0 .845-.674 1.531-1.503 1.531-.43 0-.813-.21-1.12-.38-.226-.124-.404-.222-.588-.222-.079 0-.475.028-.475.581v1.371a1.15 1.15 0 001.148 1.148h5.76a1.15 1.15 0 001.149-1.148v-5.76a1.15 1.15 0 00-1.148-1.15zm8.943 0h-5.76a1.15 1.15 0 00-1.149 1.149v5.76a1.15 1.15 0 001.148 1.148h1.371c.553 0 .581-.396.581-.475 0-.184-.098-.362-.222-.587-.17-.308-.38-.69-.38-1.12 0-.83.686-1.504 1.53-1.504.845 0 1.531.675 1.531 1.503 0 .43-.21.813-.38 1.12-.124.226-.222.404-.222.588 0 .08.028.475.58.475h1.372A1.15 1.15 0 0017 15.82v-5.76a1.15 1.15 0 00-1.148-1.149z" fill="#3060FF"/></svg>
